!!!OTL: ES STEHT EIN WIRTSHAUS AN DER LAHN
!!!ARE: Europa, Mitteleuropa, Deutschland, Rheinland
!!!SCT: E0858
!!!YEM: Copyright 1995, estate of Helmut Schaffrath.
**kern
*ICvox
*Ivox
!! Mixed meters:  3/4; 2/4
*M2/4
*k[f#c#]
*D:
{8A
8d
8e
=1
4f#
4f#
8e
8e
=2
4d
8r}
{8dd
8cc#
8b
=3
4cc#
4a
8b
8b
=4
4a
8r}
{8a
=5
8a
8a
8a
8dd
=6
4dd
8b
8b}
=7
{8b
8b
8dd
8b
=8
8b
16a
16g#
8a}
{16f#
16g
=9
8a
8a
16b
16a
16g
16f#
=10
4g
4a
=11
4f#
8r}
==
!!!AGN: Studenten - Lied, Erotik
!!!ONB: ESAC (Essen Associative Code) Database: ERK2
!!!AMT: irregular
!!!AIN: vox
!!!EED: Helmut Schaffrath
!!!EEV: 1.0
*-
